source/Icon/peoples.svg

<svg width="32" height="32" viewBox="0 0 48 48" fill="none" xmlns="http://www.w3.org/2000/svg">
    <path d="M19 20C22.866 20 26 16.866 26 13C26 9.13401 22.866 6 19 6C15.134 6 12 9.13401 12 13C12 16.866 15.134 20 19 20Z" fill="#2F88FF" stroke="#000000" stroke-width="4" stroke-linecap="round" stroke-linejoin="round"/>
    <path d="M32.6077 7C34.6405 8.2249 36.0001 10.4537 36.0001 13C36.0001 15.5463 34.6405 17.7751 32.6077 19" stroke="#000000" stroke-width="4" stroke-linecap="round" stroke-linejoin="round"/>
    <path d="M4 40.8V42H34V40.8C34 36.3196 34 34.0794 33.1281 32.3681C32.3611 30.8628 31.1372 29.6389 29.6319 28.8719C27.9206 28 25.6804 28 21.2 28H16.8C12.3196 28 10.0794 28 8.36808 28.8719C6.86278 29.6389 5.63893 30.8628 4.87195 32.3681C4 34.0794 4 36.3196 4 40.8Z" fill="#2F88FF" stroke="#000000" stroke-width="4" stroke-linecap="round" stroke-linejoin="round"/>
    <path d="M43.9999 42.0001V40.8001C43.9999 36.3197 43.9999 34.0795 43.128 32.3682C42.361 30.8629 41.1371 29.6391 39.6318 28.8721" stroke="#000000" stroke-width="4" stroke-linecap="round" stroke-linejoin="round"/>
</svg>

<svg width="48" height="48" viewBox="0 0 48 48" fill="none" xmlns="http://www.w3.org/2000/svg"><path stroke-linejoin="round" stroke-linecap="round" stroke-width="4" stroke="#333" d="M19 20a7 7 0 1 0 0-14 7 7 0 0 0 0 14ZM32.608 7A6.996 6.996 0 0 1 36 13a6.996 6.996 0 0 1-3.392 6M4 40.8V42h30v-1.2c0-4.48 0-6.72-.872-8.432a8 8 0 0 0-3.496-3.496C27.92 28 25.68 28 21.2 28h-4.4c-4.48 0-6.72 0-8.432.872a8 8 0 0 0-3.496 3.496C4 34.08 4 36.32 4 40.8ZM44 42v-1.2c0-4.48 0-6.72-.872-8.432a8 8 0 0 0-3.496-3.496"/></svg>
